!!!COM: Bach, Johann Sebastian
!!!CDT: 1685/3//-1750/7/28/
!!!OTL@@DE: Nun lob', mein' Seel', den Herren
!!!AGN: 4-Part Chorale
!!!SCT: Erk 268
!!!SCT: BWV 389
!!!YEC: Copyright 1994, David Huron
!!!YEC: Changes/Additions 2001 by Craig Stuart Sapp
!!!YEN: United States of America
!!!SMA: 371 Bach Chorales, edited by Ludwig Erk, C.F. Peters
!!!PDT: 1850, 1865
!!!ONB: Harmony and Root analysis done manually
**kern	**kern	**kern	**kern	**root	**harm	**kern
!bass	!tenor	!alto	!soprno	!	!	!
*Iorgan	*Iorgan	*Iorgan	*Iorgan	*Iorgan	*	*Iorgan
*M4/4	*M4/4	*M4/4	*M4/4	*M4/4	*M4/4	*M4/4
*met(C)	*met(C)	*met(C)	*met(C)	*met(C)	*met(C)	*met(C)
*MM60	*MM60	*MM60	*MM60	*MM60	*MM60	*MM60
*k[]	*k[]	*k[]	*k[]	*k[]	*k[]	*k[]
*C:	*C:	*C:	*C:	*C:	*C:	*C:
*>[A,A,B]	*>[A,A,B]	*>[A,A,B]	*>[A,A,B]	*>[A,A,B]	*>[A,A,B]	*>[A,A,B]
*>A	*>A	*>A	*>A	*>A	*>A	*>A
8c	4e	4g	4cc	4CC	I	4C 4e 4g
8B	.	.	.	.	.	.
=1	=1	=1	=1	=1	=1	=1
4A	4e	4a	4cc	4AA	vi	4A 4cc 4ee
4E	8e	4g	4b	4EE	iii	4E 4g 4b
.	8d	.	.	.	.	.
4F	4c	8g	4a	4FF	IV	4F 4a 4cc
.	.	8f	.	.	.	.
8C	4c	8e	4g	4CC	I	4C 4e 4g
8D	.	8f	.	.	.	.
=2	=2	=2	=2	=2	=2	=2
4E	4.c	4g	4cc	4CC	Ib	4c 4E 4g
8F	.	8a	4dd	8DD	ii7b	8d 8F 8a 8cc
8G	8B	8g	.	8GG	V	8G 8b 8dd
4C;	4c;	4g;	4ee;	4CC;	I;	4C; 4e; 4g;
4C	8c	4g	4ee	4CC	I	4C 4e 4g
.	8d	.	.	.	.	.
=3	=3	=3	=3	=3	=3	=3
4c	8e	8g	8ee	8CC	I	8C 8e 8g
.	8f	8a	8dd	8DD	ii7d	8d 8f 8a 8C
4G#	8e	4b	4ee	4EE	Vb/vi	4e 4G# 4b
.	8d	.	.	.	.	.
8A	4.c	4.a	4ee	4AA	vi	4A 4cc 4ee
8Gn	.	.	.	.	.	.
8F	.	.	4dd	8DD	ii7b	8d 8F 8a 8cc
8G	8B	8g	.	8GG	V	8G 8b 8dd
=4	=4	=4	=4	=4	=4	=4
8E	4c	8g	8cc	8CC	Ib	8c 8E 8g
8F	.	8a	8dd	8DD	ii7b	8d 8F 8a 8cc
4G	4B	8g	4ddT	4GG	V	4G 4b 4dd
.	.	8f	.	.	.	.
4C;	4G;	4e;	4cc;	4CC;	I;	4C; 4e; 4g;
=:|!	=:|!	=:|!	=:|!	=:|!	=:|!	=:|!
*>B	*>B	*>B	*>B	*>B	*>B	*>B
4C	4G	4e	4cc	4CC	I	4C 4e 4g
=5	=5	=5	=5	=5	=5	=5
4F	4A	4f	8cc	4FF	IV	4F 4a 4cc
.	.	.	8dd	.	.	.
8E	8G	4cc	4ee	4CC	Ib	4c 4E 4g
8F	8A	.	.	.	.	.
4G	4B	8g	4dd	4GG	V	4G 4b 4dd
.	.	8f	.	.	.	.
4G#	4B	4e	4ee	4EE	Vb/vi	4e 4G# 4b
=6	=6	=6	=6	=6	=6	=6
4A	8B	2e	4cc	4AA	vi	4A 4cc 4ee
.	4A	.	.	.	.	.
4E	.	.	4b	4EE	V/vi	4E 4g# 4b
.	8G#	.	.	.	.	.
4AA;	4c;	4e;	4a;	4AA;	vi;	4A; 4cc; 4ee;
8A	8c	4e	4a	4AA	vi	4A 4cc 4ee
8Gn	8B	.	.	.	.	.
=7	=7	=7	=7	=7	=7	=7
4F#	4A	4d	8dd	4DD	Vb/V	4d 4F# 4a
.	.	.	8cc	.	.	.
8G	4G	4d	4b	4GG	V	4G 4b 4dd
8F#	.	.	.	.	.	.
8E	4G	8g	8cc	8CC	Ib	8c 8E 8g
8C	.	8e	8b	8CC	I7	8C 8e 8g 8b
4D	8d	4f#	4a	4DD	V/V	4D 4f# 4a
.	8c	.	.	.	.	.
=8	=8	=8	=8	=8	=8	=8
4GG;	4B;	4d;	4g;	4GG;	V;	4G; 4b; 4dd;
8G	8B	4d	4g	4GG	V	4G 4b 4dd
8F	8A	.	.	.	.	.
4E	4G	8g	4cc	4CC	Ib	4c 4E 4g
.	.	8f	.	.	.	.
8A	4c	4e	4cc	4AA	vi	4A 4cc 4ee
8G	.	.	.	.	.	.
=9	=9	=9	=9	=9	=9	=9
8F	4c	8a	4dd	4DD	ii7b	4d 4F 4a 4cc
8D	.	8f	.	.	.	.
4G	4B	4g	4dd	4GG	V	4G 4b 4dd
4.C	4c	8g	8ee	4CC	I	4C 4e 4g
.	.	8f	8dd	.	.	.
.	4B-	4g	4ee	4CC	V7/IV	4C 4e 4g 4b-
16D	.	.	.	.	.	.
16E	.	.	.	.	.	.
=10	=10	=10	=10	=10	=10	=10
4F;	4A;	4f;	4cc;	4FF;	IV;	4F; 4a; 4cc;
4E	4c	4g	4cc	4CC	I	4C 4e 4g
4D	8d	8f	4ff	4DD	ii	4D 4f 4a
.	8e	8g	.	.	.	.
4d	4f	4a	4ff	4DD	ii	4D 4f 4a
=11	=11	=11	=11	=11	=11	=11
8G	4g	4b-	8ee	4GG	iv/ii	4G 4b- 4dd
8B-	.	.	8dd	.	.	.
4A	4c#	4e	4ee	4AA	V/ii	4A 4cc# 4ee
4D;	4A;	4f;	4dd;	4DD;	ii;	4D; 4f; 4a;
4G	4Bn	4g	4dd	4GG	V	4G 4b 4dd
=12	=12	=12	=12	=12	=12	=12
8c	4c	4g	4ee	4CC	I	4C 4e 4g
8B	.	.	.	.	.	.
8A	4c	4a	4ee	4AA	vi	4A 4cc 4ee
8G	.	.	.	.	.	.
8F	4d	4a	4ff	4DD	iib	4d 4F 4a
8E	.	.	.	.	.	.
4D	4d	4b-	4ff	4BB-	IVb/IV	4b- 4D 4ff
=13	=13	=13	=13	=13	=13	=13
4C	8e	4b-	8gg	4CC	V7/IV	4C 4e 4g 4b-
.	8d	.	16ff	.	.	.
.	.	.	16ee	.	.	.
8D	8c	8a	8ff	8DD	vi7/IV	8D 8f 8a 8cc
8E	8B-	8g	8gg	8EE	viio/IV	8E 8g 8b-
4F;	4A;	4f;	4cc;	4FF;	IV;	4F; 4a; 4cc;
4c	8c	4g	4ee	4CC	I	4C 4e 4g
.	8Bn	.	.	.	.	.
=14	=14	=14	=14	=14	=14	=14
4F#	4A	4a	8dd	4DD	Vb/V	4d 4F# 4a
.	.	.	8cc	.	.	.
4G	4d	4g	4b	4GG	V	4G 4b 4dd
8E	4G	8g	8cc	8CC	Ib	8c 8E 8g
8C	.	8e	8b	8CC	I7	8C 8e 8g 8b
4D	8d	4f#	4a	4DD	V/V	4D 4f# 4a
.	8c	.	.	.	.	.
=15	=15	=15	=15	=15	=15	=15
4GG;	4B;	4d;	4g;	4GG;	V;	4G; 4b; 4dd;
4GG	4B	4d	4g	4GG	V	4G 4b 4dd
4AA	8E	4a	4cc	4AA	vi	4A 4cc 4ee
.	8F#	.	.	.	.	.
8BB	4G	8d	4b	4GG	Vb	4g 4B 4dd
8C	.	8e	.	.	.	.
=16	=16	=16	=16	=16	=16	=16
4D	4d	4fn	4a	4DD	ii	4D 4f 4a
4E	8d	4g	4g	4CC	Ib	4c 4E 4g
.	8c	.	.	.	.	.
4F	8c	4.a	4dd	4BB	viio7c	4b 4dd 4F 4aa
.	8B	.	.	.	.	.
4F#	4c	.	4ee	4FF#	viio7/V	4F# 4a 4cc 4ee
.	.	16b	.	.	.	.
.	.	16cc	.	.	.	.
=17	=17	=17	=17	=17	=17	=17
4G;	4B;	4g;	4dd;	4GG;	V;	4G; 4b; 4dd;
4G#	8e	4b	4ee	4EE	Vb/vi	4e 4G# 4b
.	8d	.	.	.	.	.
8A	8c	4a	4ff	4AA	vi	4A 4cc 4ee
8B	8d	.	.	.	.	.
4c	8e	8g	4ee	8CC	I	8C 8e 8g
.	8f	8a	.	8FF	IV7c	8f 8a 8C 8e
=18	=18	=18	=18	=18	=18	=18
8F	8g	4b	4dd	8GG	V7d	8g 8b 8dd 8F
8G	8f	.	.	8GG	V7	8G 8b 8dd 8ff
4A	8e	2cc	8cc	4AA	vi	4A 4cc 4ee
.	8f	.	8dd	.	.	.
8G	4.g	.	4ee	4CC	Ic	4c 4e 4G
8F	.	.	.	.	.	.
4G	.	4b	4dd	4GG	V	4G 4b 4dd
.	8f	.	.	.	.	.
=19	=19	=19	=19	=19	=19	=19
2.C;	2.e;	2.g;	2.cc;	2.CC;	I;	2.C; 2.e; 2.g;
==	==	==	==	==	==	==
*-	*-	*-	*-	*-	*-	*-
